components/AnnouncementBar/logos/color-snowflake.svg

<svg width="200" height="46" viewBox="0 0 200 46" fill="none" xmlns="http://www.w3.org/2000/svg">
<mask id="mask0_10:77" style="mask-type:alpha" maskUnits="userSpaceOnUse" x="0" y="0" width="200" height="46">
<path d="M0 0H200V45.4545H0V0Z" fill="white"/>
</mask>
<g mask="url(#mask0_10:77)">
<path d="M123.717 14.2233L123.711 14.2197C123.711 14.2197 123.708 14.2174 123.704 14.2174C123.568 14.1582 123.419 14.1275 123.276 14.1275C123.044 14.1291 122.822 14.1981 122.628 14.319C122.43 14.4439 122.263 14.6259 122.167 14.8537V14.8592L117.641 27.2072L114.153 18.9307L114.148 18.9271C114.049 18.6957 113.874 18.5169 113.674 18.3924C113.473 18.2676 113.241 18.1989 112.997 18.1989C112.759 18.1989 112.538 18.2731 112.343 18.3941C112.15 18.5186 111.977 18.6957 111.879 18.9271L111.877 18.9307L108.381 27.2125L103.831 14.87H103.827C103.748 14.6314 103.587 14.4455 103.394 14.3226C103.199 14.1981 102.97 14.1291 102.735 14.1275C102.585 14.1275 102.432 14.1582 102.289 14.2174H102.282L102.277 14.2233C101.853 14.4203 101.594 14.8429 101.592 15.3034C101.592 15.4482 101.621 15.5923 101.676 15.7351H101.675L107.272 30.7169V30.7221C107.316 30.8339 107.377 30.9443 107.468 31.0528C107.533 31.1303 107.63 31.1957 107.729 31.2499C107.747 31.2676 107.776 31.2927 107.819 31.3199C107.866 31.3489 107.927 31.3692 107.988 31.3797C108.088 31.4127 108.22 31.4607 108.397 31.4607C108.624 31.4607 108.834 31.3797 109.023 31.2587C109.199 31.1414 109.356 30.9659 109.443 30.7385L109.457 30.7277L112.997 22.2936L116.541 30.6934H116.544C116.626 30.9172 116.77 31.0927 116.936 31.2172C117.112 31.3489 117.309 31.4303 117.518 31.4607H117.666C117.808 31.4607 117.945 31.4339 118.061 31.3888C118.183 31.3421 118.281 31.2803 118.362 31.2192C118.552 31.0744 118.699 30.8757 118.79 30.6551V30.6502L124.351 15.7351C124.406 15.5923 124.434 15.4498 124.434 15.3057C124.433 14.8484 124.162 14.4131 123.717 14.2233ZM98.1305 22.7763C98.1305 21.0171 97.4528 19.4235 96.3748 18.2731C95.291 17.1205 93.8232 16.4158 92.2289 16.4158C90.6339 16.4158 89.1628 17.1205 88.0809 18.2731C87.0006 19.4235 86.323 21.0171 86.323 22.7763C86.323 24.5339 87.0006 26.1124 88.0809 27.2556C89.1628 28.403 90.6339 29.0965 92.2289 29.0965C93.8232 29.0965 95.2962 28.403 96.3748 27.2556C97.4528 26.1124 98.1305 24.5339 98.1305 22.7763ZM98.0996 16.6688C99.5966 18.2512 100.506 20.4226 100.51 22.7763C100.506 25.13 99.5966 27.2991 98.0996 28.8818C96.6142 30.462 94.5392 31.461 92.2325 31.461C89.9434 31.461 87.8652 30.462 86.3741 28.8818C84.8808 27.2991 83.9566 25.13 83.9566 22.7763C83.9566 20.4226 84.8808 18.2512 86.3741 16.6688C87.8652 15.09 89.9434 14.0912 92.2325 14.0912C94.5392 14.0912 96.6142 15.09 98.0996 16.6688ZM74.5339 14.1219C72.6782 14.1219 70.9842 14.8429 69.7194 15.9933V15.3057C69.7174 14.9893 69.5997 14.6945 69.3929 14.4778C69.1922 14.2648 68.8945 14.1219 68.5686 14.1219C68.2313 14.1219 67.927 14.2572 67.7153 14.4759C67.5067 14.6909 67.3818 14.9893 67.3818 15.3057V30.6358L67.4307 30.6842L67.4327 30.6917C67.4454 30.7424 67.4776 30.7983 67.512 30.8522C67.6733 31.1359 67.9379 31.3509 68.2657 31.4463L68.3129 31.461H68.5686C68.7391 31.461 68.9109 31.4251 69.0742 31.3489C69.2102 31.2839 69.3368 31.1793 69.4384 31.0457L69.442 31.0473C69.4545 31.0349 69.4584 31.0185 69.4729 31.0061C69.4784 31.0042 69.4837 30.9986 69.4873 30.993C69.5506 30.912 69.6033 30.829 69.6361 30.7512C69.6706 30.659 69.6922 30.5721 69.7086 30.5054L69.7194 30.462V21.2569C69.7538 19.9402 70.2974 18.75 71.1692 17.8845C72.035 17.0198 73.2218 16.4848 74.5339 16.4848C75.8679 16.4848 77.058 17.0198 77.9205 17.8845C78.7867 18.7467 79.3123 19.935 79.3123 21.2445V30.2835C79.3123 30.6136 79.4536 30.9192 79.6676 31.1287C79.8866 31.3378 80.1857 31.461 80.4974 31.461C80.8145 31.461 81.1118 31.3378 81.3292 31.1287C81.5502 30.9192 81.6843 30.6136 81.6843 30.2835V21.2445C81.6843 17.343 78.4877 14.1275 74.5339 14.1219ZM191.344 21.0997C190.67 18.3741 188.269 16.4322 185.53 16.4377C182.721 16.4377 180.353 18.3382 179.619 21.0997H191.344ZM193.941 22.2165V22.3335C193.941 22.6606 193.794 22.9551 193.572 23.1485C193.35 23.3433 193.062 23.4446 192.752 23.4482H179.454C179.793 26.683 182.383 29.0717 185.477 29.0965H186.261C187.285 29.1001 188.282 28.7478 189.159 28.1645C190.038 27.5867 190.797 26.7791 191.332 25.8902C191.442 25.7006 191.6 25.5562 191.772 25.4676C191.948 25.3718 192.136 25.3284 192.326 25.3284C192.537 25.3284 192.745 25.3826 192.928 25.4928L192.941 25.4983L192.955 25.5091C193.289 25.7529 193.497 26.1252 193.497 26.5337C193.497 26.7412 193.443 26.9526 193.329 27.1438L193.325 27.1513L193.321 27.1546C192.578 28.3328 191.565 29.4073 190.362 30.1861C189.157 30.9662 187.76 31.461 186.261 31.461H185.464C183.131 31.4447 181.021 30.462 179.501 28.8907C177.984 27.3246 177.049 25.1731 177.049 22.809C177.049 20.4046 177.992 18.2225 179.521 16.6436C181.05 15.0668 183.175 14.0912 185.53 14.0912C187.776 14.0912 189.795 14.9818 191.29 16.4397C192.785 17.8973 193.762 19.9219 193.936 22.1998L193.941 22.2165ZM139.393 6.95623C139.069 6.95623 138.771 7.09186 138.558 7.30494C138.343 7.51639 138.208 7.81444 138.208 8.13766V30.2835C138.208 30.6067 138.343 30.9028 138.558 31.1127C138.771 31.3218 139.069 31.461 139.393 31.461C140.065 31.461 140.609 30.9336 140.612 30.2835V8.13766C140.609 7.48567 140.065 6.95623 139.393 6.95623ZM61.8986 22.3534C60.9416 21.9037 59.8561 21.5713 58.7729 21.2138C57.7762 20.8778 56.7648 20.5922 56.0435 20.2167C55.6812 20.0232 55.3986 19.8193 55.2157 19.5899C55.0288 19.3608 54.9383 19.1274 54.9328 18.8094C54.9347 18.3741 55.0616 18.0238 55.2754 17.713C55.5996 17.2489 56.1432 16.8874 56.7376 16.6541C57.3247 16.4201 57.9608 16.3096 58.4155 16.3096C59.76 16.3116 60.6101 16.7577 61.2625 17.2198C61.5848 17.4532 61.8569 17.6894 62.1143 17.8845C62.2464 17.9859 62.3697 18.078 62.513 18.1463C62.6484 18.2133 62.808 18.2676 62.9821 18.2676C63.0926 18.2676 63.2034 18.2476 63.3044 18.2045C63.4113 18.1614 63.504 18.0996 63.5929 18.0238C63.6798 17.9427 63.7542 17.845 63.8066 17.7365C63.8539 17.6244 63.8755 17.509 63.8755 17.3953C63.8755 17.1855 63.8083 16.9888 63.7122 16.8041C63.5329 16.4792 63.2572 16.1688 62.906 15.858C62.3841 15.3955 61.6956 14.9547 60.9544 14.6226C60.2111 14.2903 59.4141 14.0641 58.6548 14.0641C56.8953 14.0641 55.4258 14.4615 54.3584 15.1936C53.802 15.5763 53.3129 15.9952 52.967 16.5734C52.6152 17.1531 52.4195 17.8685 52.3942 18.7986C52.3925 18.8402 52.3925 18.8817 52.3925 18.9232C52.389 19.8265 52.6804 20.571 53.1388 21.154C53.8348 22.0321 54.8678 22.5577 55.8809 22.9299C56.892 23.3018 57.9027 23.524 58.5407 23.7371C59.4394 24.0352 60.3944 24.3584 61.0901 24.7865C61.4366 25.0052 61.7173 25.2401 61.9077 25.4983C62.0927 25.764 62.1972 26.0382 62.2012 26.3853V26.4108C62.1992 26.9128 62.051 27.3066 61.8061 27.6442C61.4366 28.1465 60.8222 28.5148 60.1695 28.7478C59.5194 28.9756 58.8433 29.0717 58.4083 29.0717C56.8736 29.0717 55.8465 28.7027 55.1016 28.3328C54.7282 28.1465 54.4256 27.9622 54.1518 27.8066C54.0161 27.7327 53.8892 27.6641 53.7551 27.6099C53.6246 27.5559 53.4853 27.521 53.3276 27.521C53.2316 27.521 53.1266 27.5376 53.0303 27.5752C52.9326 27.6171 52.8437 27.6749 52.7693 27.7452C52.666 27.8452 52.5755 27.9566 52.5123 28.0851C52.4506 28.2135 52.4195 28.3488 52.4195 28.4897C52.4195 28.721 52.5063 28.9325 52.6299 29.1237C52.8237 29.3998 53.1083 29.6475 53.4633 29.8949C53.8292 30.1388 54.2662 30.3793 54.7698 30.6159C55.8861 31.1414 57.3175 31.4159 58.405 31.4339H58.4083C60.0993 31.4339 61.5596 31.0457 62.79 30.1427V30.1404H62.7916C63.9948 29.2374 64.7433 27.8952 64.7433 26.3797C64.7433 25.547 64.5476 24.8408 64.2053 24.263C63.689 23.3868 62.8497 22.809 61.8986 22.3534ZM157.263 22.7763C157.263 21.0004 156.591 19.4091 155.516 18.2607C154.443 17.1152 152.97 16.4201 151.359 16.4162C149.761 16.4162 148.294 17.1152 147.21 18.2607C146.134 19.4091 145.452 21.0004 145.452 22.7763C145.452 24.5502 146.134 26.131 147.21 27.2703C148.288 28.4102 149.761 29.0965 151.359 29.0965C152.974 29.0965 154.447 28.4102 155.52 27.2742C156.591 26.131 157.263 24.5519 157.263 22.7763ZM159.278 14.4203C159.498 14.6314 159.633 14.937 159.633 15.2671V30.2835C159.633 30.6067 159.494 30.9028 159.286 31.1127C159.071 31.3218 158.776 31.461 158.45 31.461C158.124 31.461 157.825 31.3218 157.615 31.1127C157.401 30.9028 157.263 30.6067 157.263 30.2835V28.8184C155.772 30.4244 153.677 31.461 151.359 31.461C149.053 31.461 146.976 30.4731 145.488 28.8907C143.996 27.3157 143.082 25.146 143.082 22.7763C143.082 20.4066 143.996 18.2349 145.488 16.6583C146.976 15.0775 149.053 14.0912 151.359 14.0912C153.676 14.0912 155.772 15.0978 157.263 16.6959V15.2671C157.263 14.937 157.399 14.6314 157.618 14.4203C157.838 14.2125 158.133 14.0912 158.45 14.0912C158.763 14.0912 159.063 14.2125 159.278 14.4203ZM176.009 15.9429C176.245 15.7099 176.373 15.4008 176.373 15.0939C176.373 14.7922 176.245 14.4903 176.007 14.2716H176.009C176.007 14.2648 176.001 14.2648 176.001 14.2648C176 14.2592 175.996 14.2572 175.996 14.2572H175.993C175.764 14.0334 175.471 13.9105 175.168 13.9105C174.862 13.9105 174.563 14.0376 174.335 14.2648L165.07 23.2659V8.13766C165.07 7.48567 164.522 6.95623 163.85 6.95623C163.526 6.95623 163.229 7.09186 163.017 7.30494C162.806 7.51639 162.665 7.81444 162.665 8.13766V30.2835C162.665 30.6067 162.806 30.9028 163.017 31.1127C163.229 31.3218 163.526 31.461 163.85 31.461C164.522 31.461 165.07 30.9336 165.07 30.2835V26.6291L168.087 23.6254L174.237 31.0221C174.353 31.1921 174.511 31.3091 174.666 31.3708C174.844 31.4378 175.016 31.461 175.17 31.461C175.382 31.461 175.681 31.4159 175.944 31.21L175.959 31.2012L175.974 31.1846C176.22 30.9427 176.36 30.6211 176.36 30.2924C176.36 30.0159 176.258 29.7342 176.067 29.5087V29.5051L169.806 21.9181L176.003 15.9429H176.009ZM134.504 7.00885H134.239C134.205 7.00885 134.171 7.01244 134.134 7.01375C134.102 7.01244 134.067 7.00885 134.033 7.00885C133.35 7.00885 132.686 7.0863 132.066 7.29219C131.456 7.49449 130.892 7.82882 130.456 8.33636L130.454 8.3344L130.452 8.33636V8.338C130.001 8.83835 129.704 9.43642 129.523 10.1159C129.341 10.7986 129.267 11.5679 129.26 12.4421V14.135H127.388C126.738 14.1386 126.221 14.6569 126.221 15.2838C126.218 15.6214 126.349 15.9322 126.563 16.1564C126.779 16.3766 127.074 16.5211 127.402 16.5391H129.26V30.3123L129.258 30.3446C129.258 30.6679 129.394 30.9659 129.613 31.1793C129.83 31.3888 130.135 31.5133 130.467 31.5133C131.097 31.5101 131.615 30.997 131.617 30.3446V16.5391H133.63C133.955 16.5211 134.254 16.3855 134.468 16.1668C134.687 15.9485 134.821 15.6416 134.821 15.3089V15.2642C134.814 14.6442 134.294 14.135 133.643 14.135H131.617V12.4493C131.63 11.7035 131.708 11.1453 131.82 10.7391C131.929 10.3306 132.078 10.074 132.211 9.9152C132.342 9.77434 132.512 9.65669 132.79 9.56257C133.069 9.47269 133.455 9.41485 133.977 9.41485H134.038C134.069 9.41485 134.102 9.40929 134.131 9.40929C134.167 9.40929 134.201 9.41485 134.239 9.41485H134.392H134.504C135.172 9.41485 135.711 8.87658 135.711 8.21152C135.711 7.54711 135.172 7.00885 134.504 7.00885ZM15.1565 23.558C15.2526 23.2564 15.2925 22.9456 15.2853 22.6387C15.2742 22.4165 15.2453 22.1946 15.1821 21.9723C14.9916 21.2824 14.5405 20.6661 13.8644 20.2775L4.24961 14.7432C2.89232 13.9644 1.16193 14.4275 0.382964 15.7786C-0.403545 17.1276 0.0603608 18.8506 1.41766 19.6314L6.79044 22.7289L1.41766 25.8179C0.0603608 26.6 -0.401906 28.3233 0.382964 29.6779C1.16193 31.0254 2.89232 31.4862 4.24961 30.7074L13.8644 25.1696C14.5133 24.7973 14.9536 24.2136 15.1565 23.558ZM17.7658 28.7442C17.2134 28.6972 16.639 28.8129 16.1223 29.1129L6.5003 34.6436C5.14661 35.424 4.68434 37.1561 5.46561 38.5075C6.25048 39.8552 7.97922 40.3193 9.33094 39.5353L14.7218 36.4355V42.6296C14.7218 44.1901 15.9882 45.4545 17.5557 45.4545C19.1156 45.4545 20.386 44.1901 20.386 42.6296V31.5565C20.386 30.0698 19.23 28.8488 17.7658 28.7442ZM27.6197 16.71C28.1705 16.7554 28.7432 16.6381 29.2599 16.3417L38.88 10.8058C40.2356 10.025 40.6956 8.30009 39.9163 6.94512C39.1354 5.59636 37.405 5.13359 36.0513 5.91369L30.6641 9.01711V2.82106C30.6641 1.26477 29.3976 0 27.8301 0C26.2627 0 24.9995 1.26477 24.9995 2.82106V13.8942C24.9995 15.3792 26.1522 16.6021 27.6197 16.71ZM6.5003 10.8058L16.1223 16.3417C16.639 16.6381 17.2134 16.7554 17.7658 16.71C19.23 16.6021 20.386 15.3792 20.386 13.8942V2.82106C20.386 1.26477 19.1156 0 17.5557 0C15.9882 0 14.7218 1.26477 14.7218 2.82106V9.01711L9.33094 5.91369C7.97922 5.13359 6.25048 5.59636 5.46561 6.94512C4.68434 8.30009 5.14661 10.025 6.5003 10.8058ZM24.5828 22.7057C24.5828 22.5449 24.4851 22.3207 24.371 22.2018L23.2131 21.0527C23.099 20.9393 22.8741 20.8452 22.7124 20.8452H22.6675C22.5062 20.8452 22.2816 20.9393 22.1692 21.0527L21.0112 22.2018C20.8952 22.3207 20.8063 22.5449 20.8063 22.7057V22.7508C20.8063 22.9096 20.8952 23.1319 21.0112 23.2476L22.1692 24.3999C22.2833 24.5136 22.5062 24.6074 22.6675 24.6074H22.7124C22.8741 24.6074 23.099 24.5136 23.2131 24.3999L24.371 23.2476C24.4851 23.1319 24.5828 22.9096 24.5828 22.7508V22.7057ZM27.7793 23.811L23.7802 27.7926C23.6658 27.9096 23.4448 28.0053 23.2783 28.0053H22.9881H22.3974H22.1023C21.9407 28.0053 21.7161 27.9096 21.6 27.7926L17.6029 23.811C17.4885 23.6989 17.396 23.4734 17.396 23.3142V23.0198V22.4309V22.1403C17.396 21.9776 17.4885 21.7517 17.6029 21.638L21.6 17.6568C21.7161 17.5394 21.9407 17.4473 22.1023 17.4473H22.3974H22.9881H23.2783C23.4412 17.4473 23.6658 17.5394 23.7802 17.6568L27.7793 21.638C27.8934 21.7517 27.9859 21.9776 27.9859 22.1403V22.4309V23.0198V23.3142C27.9859 23.4734 27.8934 23.6989 27.7793 23.811ZM38.88 34.6436L29.2599 29.1129C28.7432 28.8129 28.1705 28.6972 27.6197 28.7442C26.1522 28.8488 24.9995 30.0698 24.9995 31.5565V42.6296C24.9995 44.1901 26.2627 45.4545 27.8301 45.4545C29.3976 45.4545 30.6641 44.1901 30.6641 42.6296V36.4355L36.0513 39.5353C37.4046 40.3193 39.1354 39.8552 39.9163 38.5075C40.6956 37.1561 40.2356 35.424 38.88 34.6436ZM43.9665 19.6314L38.5934 22.7289L43.9665 25.8179C45.3235 26.6 45.7874 28.3233 45.0029 29.6779C44.22 31.0254 42.4879 31.4862 41.1359 30.7074L31.5139 25.1696C30.8723 24.7973 30.4267 24.2136 30.229 23.558C30.1349 23.2564 30.0913 22.9456 30.1021 22.6387C30.1077 22.4165 30.1402 22.1946 30.2018 21.9723C30.3943 21.2824 30.8454 20.6664 31.5139 20.2775L41.1359 14.7432C42.4879 13.9644 44.22 14.4275 45.0029 15.7786C45.7874 17.1276 45.3235 18.8506 43.9665 19.6314ZM200 14.1069C200 15.6596 198.957 16.9554 197.216 16.9554C195.486 16.9554 194.456 15.6472 194.456 14.1069C194.456 12.5542 195.486 11.2581 197.216 11.2581C198.957 11.2581 200 12.5542 200 14.1069ZM199.448 14.1069C199.448 12.7866 198.565 11.7836 197.216 11.7836C195.891 11.7836 195.008 12.7372 195.008 14.1069C195.008 15.4148 195.891 16.4296 197.216 16.4296C198.565 16.4296 199.448 15.4272 199.448 14.1069ZM196.124 12.8229H197.314C197.964 12.8229 198.393 13.1775 198.393 13.7275C198.393 14.07 198.221 14.3265 197.964 14.4857L198.43 15.1579V15.2926H197.755L197.301 14.6445H196.774V15.2926H196.124V12.8229ZM197.301 13.4222H196.774V14.07H197.301C197.547 14.07 197.706 13.9598 197.706 13.7523C197.706 13.532 197.559 13.4222 197.301 13.4222Z" fill="#29B5E8"/>
</g>
</svg>

<svg xmlns="http://www.w3.org/2000/svg" width="200" height="46" fill="none" viewBox="0 0 200 46">  
  <path fill="#29B5E8" d="m123.717 14.223-.006-.003s-.003-.003-.007-.003a1.085 1.085 0 0 0-.428-.09 1.24 1.24 0 0 0-.648.192 1.177 1.177 0 0 0-.461.535v.005l-4.526 12.348-3.488-8.276-.005-.004a1.19 1.19 0 0 0-.474-.535 1.235 1.235 0 0 0-1.331.002 1.2 1.2 0 0 0-.464.533l-.002.004-3.496 8.281-4.55-12.342h-.004a1.037 1.037 0 0 0-.433-.547 1.243 1.243 0 0 0-.659-.196c-.15 0-.303.031-.446.09h-.007l-.005.006a1.19 1.19 0 0 0-.601 1.512h-.001l5.597 14.982v.005c.044.112.105.222.196.33a.919.919 0 0 0 .261.198.488.488 0 0 0 .259.13c.1.033.232.08.409.08a1.16 1.16 0 0 0 1.046-.721l.014-.011 3.54-8.434 3.544 8.4h.003c.082.223.226.399.392.523.176.132.373.213.582.244h.148a1.104 1.104 0 0 0 .696-.242c.19-.145.337-.343.428-.564v-.005l5.561-14.915c.055-.143.083-.285.083-.43a1.182 1.182 0 0 0-.717-1.082ZM98.13 22.776a6.58 6.58 0 0 0-1.755-4.503c-1.084-1.152-2.552-1.857-4.146-1.857-1.595 0-3.066.704-4.148 1.857a6.57 6.57 0 0 0-1.758 4.503 6.5 6.5 0 0 0 1.758 4.48c1.082 1.147 2.553 1.84 4.148 1.84 1.594 0 3.067-.693 4.146-1.84a6.51 6.51 0 0 0 1.755-4.48Zm-.03-6.107a8.906 8.906 0 0 1 2.41 6.107 8.901 8.901 0 0 1-2.41 6.106c-1.486 1.58-3.56 2.579-5.867 2.579-2.29 0-4.368-.999-5.859-2.58a8.906 8.906 0 0 1-2.417-6.105 8.91 8.91 0 0 1 2.417-6.107c1.491-1.579 3.57-2.578 5.859-2.578 2.306 0 4.381.999 5.867 2.578Zm-23.566-2.547a7.15 7.15 0 0 0-4.815 1.871v-.687a1.205 1.205 0 0 0-.326-.828 1.141 1.141 0 0 0-.824-.356c-.338 0-.642.135-.854.354a1.195 1.195 0 0 0-.333.83v15.33l.049.048.002.008c.012.05.045.106.079.16.161.284.426.499.754.594l.047.015h.256c.17 0 .342-.036.505-.112.136-.065.263-.17.364-.303l.004.001c.013-.012.016-.029.03-.04a.032.032 0 0 0 .015-.014c.064-.081.116-.164.15-.242.034-.092.055-.179.072-.246l.01-.043v-9.205a4.917 4.917 0 0 1 1.45-3.373 4.745 4.745 0 0 1 3.365-1.4c1.334 0 2.524.536 3.386 1.4a4.72 4.72 0 0 1 1.392 3.36v9.04c0 .33.142.635.356.845a1.208 1.208 0 0 0 1.661 0c.221-.21.355-.515.355-.846v-9.039c0-3.901-3.196-7.117-7.15-7.122Zm116.81 6.978c-.674-2.726-3.075-4.668-5.814-4.662-2.809 0-5.177 1.9-5.911 4.662h11.725Zm2.597 1.116v.117c0 .328-.147.622-.369.816a1.25 1.25 0 0 1-.82.3h-13.298c.339 3.234 2.929 5.623 6.023 5.647h.784c1.024.004 2.021-.348 2.898-.931a7.2 7.2 0 0 0 2.173-2.275c.11-.19.268-.334.44-.422a1.166 1.166 0 0 1 1.156.025l.013.005.014.011c.334.244.542.616.542 1.025 0 .207-.054.419-.168.61l-.004.007-.004.004c-.743 1.178-1.756 2.252-2.959 3.031-1.205.78-2.602 1.275-4.101 1.275h-.797a8.358 8.358 0 0 1-5.963-2.57 8.722 8.722 0 0 1-2.452-6.082 8.84 8.84 0 0 1 2.472-6.165 8.338 8.338 0 0 1 6.009-2.553 8.2 8.2 0 0 1 5.76 2.349c1.495 1.457 2.472 3.482 2.646 5.76l.005.017Zm-54.548-15.26c-.324 0-.622.136-.835.349-.215.211-.35.51-.35.833v22.145c0 .324.135.62.35.83.213.209.511.348.835.348.672 0 1.216-.527 1.219-1.177V8.137c-.003-.652-.547-1.182-1.219-1.182ZM61.899 22.353c-.957-.45-2.043-.782-3.126-1.14-.997-.335-2.008-.62-2.73-.996-.362-.194-.644-.398-.827-.627a1.181 1.181 0 0 1-.283-.78 1.88 1.88 0 0 1 .342-1.097c.325-.464.868-.826 1.463-1.059a4.837 4.837 0 0 1 1.678-.344c1.344.002 2.194.448 2.847.91.322.233.594.47.851.665.132.1.256.193.399.261.135.067.295.122.47.122.11 0 .22-.02.321-.064.107-.043.2-.104.289-.18a.979.979 0 0 0 .214-.288.874.874 0 0 0 .069-.34c0-.21-.068-.407-.164-.592-.18-.325-.455-.635-.806-.946a7.85 7.85 0 0 0-1.952-1.235c-.743-.333-1.54-.559-2.3-.559-1.759 0-3.228.397-4.296 1.13-.556.382-1.045.801-1.391 1.38-.352.58-.547 1.294-.573 2.225-.002.041-.002.083-.002.124-.003.904.288 1.648.747 2.231.696.878 1.729 1.404 2.742 1.776 1.011.372 2.022.594 2.66.807.898.298 1.853.621 2.55 1.05.346.218.626.453.817.711.185.266.29.54.293.887v.026c-.002.502-.15.896-.395 1.233-.37.503-.984.87-1.636 1.104a5.743 5.743 0 0 1-1.762.324c-1.534 0-2.562-.37-3.306-.74-.374-.186-.676-.37-.95-.525a3.86 3.86 0 0 0-.397-.197 1.098 1.098 0 0 0-.427-.089.83.83 0 0 0-.298.054.892.892 0 0 0-.26.17 1.24 1.24 0 0 0-.258.34.924.924 0 0 0-.093.405c0 .231.087.443.21.634.195.276.48.524.834.77.366.245.803.485 1.307.722 1.116.525 2.547.8 3.635.818h.003c1.691 0 3.152-.388 4.382-1.291v-.003h.002c1.203-.903 1.951-2.245 1.951-3.76 0-.833-.195-1.54-.538-2.117-.516-.876-1.355-1.454-2.306-1.91Zm95.364.423c0-1.776-.672-3.367-1.747-4.515-1.073-1.146-2.546-1.84-4.157-1.845-1.598 0-3.065.7-4.149 1.845a6.587 6.587 0 0 0-1.758 4.515c0 1.774.682 3.355 1.758 4.494 1.078 1.14 2.551 1.826 4.149 1.826 1.615 0 3.088-.686 4.161-1.822 1.071-1.143 1.743-2.722 1.743-4.498Zm2.015-8.356c.22.211.355.517.355.847v15.017a1.187 1.187 0 0 1-1.183 1.177c-.326 0-.625-.14-.835-.348a1.166 1.166 0 0 1-.352-.83v-1.465c-1.491 1.606-3.586 2.643-5.904 2.643-2.306 0-4.383-.988-5.871-2.57a8.88 8.88 0 0 1-2.406-6.115c0-2.37.914-4.541 2.406-6.118 1.488-1.58 3.565-2.567 5.871-2.567 2.317 0 4.413 1.007 5.904 2.605v-1.429c0-.33.136-.636.355-.847a1.208 1.208 0 0 1 1.66 0Zm16.731 1.523c.236-.233.364-.542.364-.85 0-.3-.128-.603-.366-.821h.002c-.002-.007-.008-.007-.008-.007-.001-.006-.005-.008-.005-.008h-.003a1.18 1.18 0 0 0-.825-.346c-.306 0-.605.127-.833.354l-9.265 9V8.139c0-.652-.548-1.182-1.22-1.182-.324 0-.621.136-.833.349a1.19 1.19 0 0 0-.352.833v22.145a1.195 1.195 0 0 0 1.185 1.177c.672.001 1.22-.526 1.22-1.177V26.63l3.017-3.004 6.15 7.397c.116.17.274.287.429.349.178.067.35.09.504.09.212 0 .511-.045.774-.251l.015-.009.015-.016a1.26 1.26 0 0 0 .386-.893 1.22 1.22 0 0 0-.293-.783v-.004l-6.261-7.587 6.197-5.975h.006Zm-41.505-8.934h-.265c-.034 0-.068.003-.105.005-.032-.002-.067-.005-.101-.005-.683 0-1.347.077-1.967.283-.61.202-1.174.537-1.61 1.044l-.002-.002-.002.002v.002c-.451.5-.748 1.098-.929 1.778-.182.683-.256 1.452-.263 2.326v1.693h-1.872a1.162 1.162 0 0 0-1.167 1.149c-.003.337.128.648.342.872.216.22.511.365.839.383h1.858v13.773l-.002.033c0 .323.136.62.355.834.217.21.522.334.854.334a1.162 1.162 0 0 0 1.15-1.168V16.539h2.013a1.27 1.27 0 0 0 .838-.372c.219-.219.353-.525.353-.858v-.045c-.007-.62-.527-1.129-1.178-1.129h-2.026v-1.686c.013-.745.091-1.304.203-1.71.109-.408.258-.665.391-.824.131-.14.301-.258.579-.352.279-.09.665-.148 1.187-.148h.061c.031 0 .064-.006.093-.006.036 0 .07.006.108.006h.265a1.204 1.204 0 1 0 0-2.406ZM15.157 23.558a2.79 2.79 0 0 0 .128-.92 2.954 2.954 0 0 0-.103-.666 2.809 2.809 0 0 0-1.318-1.695L4.25 14.744A2.834 2.834 0 0 0 .383 15.78a2.808 2.808 0 0 0 1.035 3.852L6.79 22.73l-5.372 3.089a2.817 2.817 0 0 0-1.035 3.86 2.835 2.835 0 0 0 3.867 1.03l9.614-5.538a2.805 2.805 0 0 0 1.292-1.612Zm2.609 5.186a2.794 2.794 0 0 0-1.644.369L6.5 34.643a2.828 2.828 0 0 0-1.034 3.864 2.831 2.831 0 0 0 3.865 1.028l5.39-3.1v6.195a2.828 2.828 0 0 0 2.835 2.825 2.83 2.83 0 0 0 2.83-2.825V31.556a2.823 2.823 0 0 0-2.62-2.812ZM27.62 16.71a2.826 2.826 0 0 0 1.64-.368l9.62-5.536a2.824 2.824 0 0 0 1.036-3.86 2.833 2.833 0 0 0-3.865-1.032l-5.387 3.103V2.821A2.827 2.827 0 0 0 27.83 0 2.824 2.824 0 0 0 25 2.821v11.073a2.828 2.828 0 0 0 2.62 2.816ZM6.5 10.806l9.622 5.536a2.833 2.833 0 0 0 1.644.368 2.83 2.83 0 0 0 2.62-2.816V2.821A2.829 2.829 0 0 0 17.556 0a2.827 2.827 0 0 0-2.834 2.821v6.196L9.33 5.914a2.835 2.835 0 0 0-3.865 1.031 2.823 2.823 0 0 0 1.034 3.86Zm18.083 11.9a.843.843 0 0 0-.212-.504l-1.158-1.15a.82.82 0 0 0-.5-.207h-.046a.81.81 0 0 0-.498.208l-1.158 1.149a.823.823 0 0 0-.205.504v.045c0 .159.09.38.205.497L22.17 24.4a.812.812 0 0 0 .498.207h.045a.818.818 0 0 0 .501-.207l1.158-1.152a.82.82 0 0 0 .212-.497v-.045Zm3.196 1.105-3.999 3.982a.797.797 0 0 1-.502.212h-1.176a.814.814 0 0 1-.502-.212l-3.997-3.982a.804.804 0 0 1-.207-.497V22.14c0-.162.092-.388.207-.502l3.997-3.981a.808.808 0 0 1 .502-.21h1.176a.8.8 0 0 1 .502.21l4 3.981c.113.114.206.34.206.502v1.174c0 .16-.093.385-.207.497ZM38.88 34.644l-9.62-5.531a2.786 2.786 0 0 0-1.64-.369A2.821 2.821 0 0 0 25 31.557V42.63a2.825 2.825 0 0 0 2.83 2.825 2.828 2.828 0 0 0 2.834-2.825v-6.195l5.387 3.1a2.83 2.83 0 0 0 3.865-1.027 2.828 2.828 0 0 0-1.036-3.864Zm5.087-15.013-5.374 3.098 5.373 3.089a2.818 2.818 0 0 1 1.037 3.86 2.838 2.838 0 0 1-3.867 1.03l-9.622-5.538a2.801 2.801 0 0 1-1.285-1.612 2.763 2.763 0 0 1-.127-.92 2.836 2.836 0 0 1 1.412-2.361l9.622-5.534a2.836 2.836 0 0 1 3.867 1.036 2.81 2.81 0 0 1-1.036 3.852ZM200 14.107c0 1.553-1.043 2.848-2.784 2.848-1.73 0-2.76-1.308-2.76-2.848 0-1.553 1.03-2.849 2.76-2.849 1.741 0 2.784 1.296 2.784 2.849Zm-.552 0c0-1.32-.883-2.323-2.232-2.323-1.325 0-2.208.953-2.208 2.323 0 1.308.883 2.323 2.208 2.323 1.349 0 2.232-1.003 2.232-2.323Zm-3.324-1.284h1.19c.65 0 1.079.354 1.079.904a.864.864 0 0 1-.429.759l.466.672v.135h-.675l-.454-.648h-.527v.648h-.65v-2.47Zm1.177.6h-.527v.647h.527c.246 0 .405-.11.405-.318 0-.22-.147-.33-.405-.33Z"/>
</svg>
